source/img/icon_phone.svg

<svg width="20" height="20" viewBox="0 0 20 20" fill="none" xmlns="http://www.w3.org/2000/svg">
<g clip-path="url(#clip0_2403_1829)">
<path d="M17.9 9.4H9.40002V10.6H17.9L15.8 12.7L16.7 13.6L19.8 10.5C19.8974 10.3702 19.95 10.2123 19.95 10.05C19.95 9.88772 19.8974 9.72982 19.8 9.6L16.7 6.5L15.8 7.4L17.9 9.4Z" fill="black"/>
<path d="M8.09995 19.4V13.2C8.0884 13.0447 8.02148 12.8987 7.91136 12.7886C7.80125 12.6785 7.65525 12.6116 7.49995 12.6H3.09995C3.1051 12.9167 3.23318 13.2189 3.45712 13.4428C3.68106 13.6668 3.9833 13.7949 4.29995 13.8H6.79995V18.8H3.09995C2.86319 18.8149 2.62585 18.7825 2.4017 18.7048C2.17756 18.6271 1.97109 18.5057 1.7943 18.3475C1.61751 18.1893 1.47393 17.9976 1.37189 17.7834C1.26986 17.5693 1.21142 17.337 1.19995 17.1V3.10001C1.19175 2.6373 1.3651 2.18977 1.68286 1.85331C2.00062 1.51686 2.43752 1.31824 2.89995 1.30001H6.79995V6.30001H4.39995C4.0833 6.30516 3.78106 6.43324 3.55712 6.65718C3.33318 6.88112 3.2051 7.18336 3.19995 7.50001H7.59995C7.75525 7.48846 7.90125 7.42154 8.01136 7.31142C8.12148 7.2013 8.1884 7.05531 8.19995 6.90001V0.600012C8.15226 0.443872 8.06111 0.304534 7.93715 0.198285C7.81319 0.0920352 7.66155 0.0232649 7.49995 1.23734e-05H3.09995C2.70593 -0.0133408 2.31315 0.0511002 1.94405 0.189651C1.57495 0.328202 1.23678 0.538145 0.948872 0.807477C0.660965 1.07681 0.428969 1.40025 0.266146 1.7593C0.103324 2.11835 0.0128689 2.50598 -4.64045e-05 2.90001V16.8C-0.0290254 17.1977 0.0245894 17.597 0.157426 17.9729C0.290263 18.3489 0.499448 18.6932 0.771825 18.9844C1.0442 19.2756 1.37388 19.5072 1.74012 19.6648C2.10637 19.8224 2.50126 19.9024 2.89995 19.9H7.49995C7.57344 19.915 7.64937 19.9133 7.7221 19.895C7.79484 19.8767 7.86253 19.8423 7.92015 19.7942C7.97777 19.7462 8.02385 19.6859 8.05497 19.6176C8.0861 19.5494 8.10147 19.475 8.09995 19.4Z" fill="black"/>
</g>
<defs>
<clipPath id="clip0_2403_1829">
<rect width="20" height="20" fill="white"/>
</clipPath>
</defs>
</svg>

<svg width="20" height="20" fill="none" xmlns="http://www.w3.org/2000/svg"><path d="M17.9 9.4H9.4v1.2h8.5l-2.1 2.1.9.9 3.1-3.1a.7497.7497 0 0 0 0-.9l-3.1-3.1-.9.9 2.1 2ZM8.1 19.4v-6.2a.65.65 0 0 0-.6-.6H3.1a1.2198 1.2198 0 0 0 1.2 1.2h2.5v5H3.1a1.7888 1.7888 0 0 1-1.3057-.4525A1.79 1.79 0 0 1 1.2 17.1v-14a1.77 1.77 0 0 1 1.7-1.8h3.9v5H4.4a1.22 1.22 0 0 0-1.2 1.2h4.4a.65.65 0 0 0 .6-.6V.6a.86.86 0 0 0-.7-.6H3.1A3 3 0 0 0 0 2.9v13.9a2.8897 2.8897 0 0 0 2.9 3.1h4.6a.5004.5004 0 0 0 .555-.2824A.4997.4997 0 0 0 8.1 19.4Z" fill="#000"/></svg>
